src/assets/svgs/home.svg

<svg width="22" height="23" viewBox="0 0 22 23" xmlns="http://www.w3.org/2000/svg">
<path fill-rule="evenodd" clip-rule="evenodd" d="M20.6318 6.61673C21.3856 7.2006 21.8479 8.06798 21.9267 9.01185L21.9379 9.23798V18.3606C21.9379 20.7119 20.0806 22.6244 17.7529 22.7481H15.5142C14.4443 22.7267 13.5792 21.8942 13.5004 20.848L13.4892 20.6894V17.473C13.4892 17.1231 13.2293 16.8317 12.8817 16.7744L12.7804 16.7631H9.77555C9.41668 16.7744 9.12418 17.0331 9.07918 17.3706L9.06793 17.473V20.6792C9.06793 20.7456 9.05555 20.8244 9.04543 20.8806L9.03418 20.9042L9.0218 20.9819C8.88793 21.9392 8.10043 22.6694 7.12168 22.738L6.97543 22.7481H4.96168C2.61043 22.7481 0.686677 20.9042 0.562927 18.5856V9.23798C0.573052 8.2806 0.990427 7.39185 1.68793 6.7731L8.69668 1.13685C10.1254 0.00172818 12.1279 -0.0432719 13.6006 1.00185L13.7817 1.13685L20.6318 6.61673ZM20.3618 18.5406L20.3742 18.3606V9.2481C20.3618 8.76548 20.1604 8.31435 19.8117 7.97798L19.6654 7.8531L12.8029 2.3631C11.9479 1.67685 10.7329 1.64423 9.83293 2.23935L9.66305 2.3631L2.82305 7.87673C2.43043 8.1681 2.19418 8.60685 2.13793 9.0681L2.12555 9.2481V18.3606C2.12555 19.8569 3.29555 21.0831 4.78168 21.1731H6.97543C7.22293 21.1731 7.43668 21.0055 7.4693 20.7692L7.49293 20.5667L7.50418 20.5094V17.473C7.50418 16.2692 8.42668 15.2905 9.60793 15.1994H12.7804C13.9831 15.1994 14.9618 16.123 15.0529 17.3042V20.6894C15.0529 20.9256 15.2217 21.1292 15.4467 21.1731H17.5381C19.0456 21.1731 20.2718 20.0155 20.3618 18.5406Z"/>
</svg>

<svg width="22" height="23" xmlns="http://www.w3.org/2000/svg"><path fill-rule="evenodd" clip-rule="evenodd" d="M20.632 6.617a3.374 3.374 0 0 1 1.295 2.395l.01.226v9.123c0 2.35-1.856 4.263-4.184 4.387h-2.239a2.06 2.06 0 0 1-2.014-1.9l-.01-.159v-3.216c0-.35-.26-.641-.608-.699l-.102-.01H9.776a.714.714 0 0 0-.697.607l-.011.102v3.206c0 .067-.012.145-.023.202l-.01.023-.013.078a2.05 2.05 0 0 1-1.9 1.756l-.147.01H4.962a4.405 4.405 0 0 1-4.4-4.162V9.238a3.338 3.338 0 0 1 1.126-2.465l7.009-5.636a4.088 4.088 0 0 1 4.904-.135l.18.135 6.85 5.48zm-.27 11.924.012-.18V9.248a1.823 1.823 0 0 0-.562-1.27l-.147-.125-6.862-5.49c-.855-.686-2.07-.719-2.97-.124l-.17.124-6.84 5.514c-.393.291-.629.73-.685 1.191l-.012.18v9.113a2.822 2.822 0 0 0 2.656 2.812h2.193a.485.485 0 0 0 .494-.404l.024-.202.011-.058v-3.036c0-1.204.923-2.182 2.104-2.274h3.172c1.203 0 2.182.924 2.273 2.105v3.385c0 .237.169.44.394.484h2.091a2.812 2.812 0 0 0 2.824-2.632z"/></svg>
